X: 190
T: Pat ‘Em On The Back
B: canberra pickers and fiddlers
B: old time tunes update
B: tunes
M:2/2
L:1/16
Q: 1/2=160
K:G
V:1 
d8d2e2d2B2|A2F2D2F2A2F2D4|ABd6d4d2c2|B2G2B2B2c2B2A2G2|
F2D2E2F2G8|B2d4d2d2e2d2B2|A2F2D2F2A2F2D4|ABd6d4g2f2|
e2d2e2f2g2e2d2c2|B2G2A2F2G4A2d2|B2G2D2B,2G,2B,2D2c2|B2G2A2F2G2D2A2d2|
B2G2D2B,2G,2B,2D2c2|B2G2A2F2G2B2g2f2|e2d2e2f2g2e2d2c2|B2d2A2F2G4[B-G]4|
[B]4G2D2G,4B,2G,2|C2E2D2C2B,2C2D4|B4G2D2G,4B,2G,2|C2E2D2C2B,2G,2G,4|
B4G2D2G,4B,2G,2|C2E2D2C2B,2C2D4|D2G2B2G2D4B,4|C2E2D2C2B,2G,2G,4|
% abcbook-tune_id 67a7d9ecf4759976b18a40fb
% abcbook-tune_composer_id 
% abcbook-link-0 https://www.youtube.com/watch?v=AYiER9WmnGE
% abcbook-link-title-0 Pat &#39;em on the Back
% abcbook-boost 0
% abcbook-difficulty 0
% abcbook-tags old time tunes
% abcbook-tablature 
% abcbook-transpose 
% abcbook-tuning GDAD
% abcbook-lastupdated 1739217894850
% abcbook-src-url 
% abcbook-soundfonts 
% abcbook-repeats 1


